src/topics/icons/hexo.svg

<svg height="295" preserveAspectRatio="xMidYMid" viewBox="0 0 256 295" width="256" xmlns="http://www.w3.org/2000/svg"><path d="m128.039402 0-127.46412812 73.767737.01559017 147.311384 127.75449495 73.464699 127.464137-73.768712.001496-147.2300134-127.771556-73.5450946z" fill="#0e83cd"/><path d="m68.2420989 211.051307.0096072-63.701044.0096072-63.701052 11.573225-6.7680728 11.0855709 6.5598941.1195951 26.0306207.1195894 26.030614h37.0378963 37.037896l.119589-26.013515.119578-26.0135209 11.257574-6.5048985 11.412353 6.6788784-.005752 63.658884-.005753 63.658876-11.297988 6.310808-11.360676-6.392504-.119658-25.885673-.11967-25.885684h-37.037896-37.037896l-.1196584 25.878361.0342292 26.007943-11.3604459 6.662461z" fill="#fff"/></svg>

<?xml version="1.0" encoding="UTF-8" standalone="no"?>
<svg width="256px" height="295px" viewBox="0 0 256 295" version="1.1" xmlns="http://www.w3.org/2000/svg" xmlns:xlink="http://www.w3.org/1999/xlink" preserveAspectRatio="xMidYMid">
	<g>
		<path d="M128.039402,0 L0.57527388,73.767737 L0.59086405,221.079121 L128.345359,294.54382 L255.809496,220.775108 L255.810992,73.5450946 L128.039436,0 L128.039402,0 Z" fill="#0E83CD"></path>
		<path d="M68.2420989,211.051307 L68.2517061,147.350263 L68.2613133,83.649211 L79.8345383,76.8811382 L90.9201092,83.4410323 L91.0397043,109.471653 L91.1592937,135.502267 L128.19719,135.502267 L165.235086,135.502267 L165.354675,109.488752 L165.474253,83.4752311 L176.731827,76.9703326 L188.14418,83.649211 L188.138428,147.308095 L188.132675,210.966971 L176.834687,217.277779 L165.474011,210.885275 L165.354353,184.999602 L165.234683,159.113918 L128.196787,159.113918 L91.158891,159.113918 L91.0392326,184.992279 L91.0734618,211.000222 L79.7130159,217.662683 L68.2420989,211.051307 Z" fill="#FFFFFF"></path>
	</g>
</svg>
